X: 19416
T: Jackie Small's
R: jig
M: 6/8
K: Dmajor
EEE ccc|BBB AFD|EEE cdc|BAF AFD|
EEE ccc|BBB ABc|def edB|BAF AFD:|
fff efe|edB ABd|ffd efe|edB A3|
fff efe|edB ABd|def edB|BAF AFD:|

